X: 1
T: the Fishers Strathspey
C: James Fishar 1778
O: arr. by Cal Howard
R: strathspey
Z: 2018 John Chambers <jc:trillian.mit.edu>
N: This is a strathspey version of the well-known Fisher's Hornpipe.
M: C
L: 1/8
K: F
(3(cde) |\
"F"f>c A>c "C7"B<d c>B | "F"A>F A>F "C7"B<d c>B |\
"F"A>F A>F "C7"B>G B>G | "F"A>F A>F "C7"G2 (3(cde) |
"F"f>c A>c "C7"B<d c>B | "F"A>F A>F "C7"B<d c>B |\
"F"A>B c>f "C7"e>f g>e | "F"f2 {g}f2 {e}f2 e>f |
"C7"g>e c>e g<b a>g | "F"a>f c>f a<c' b>a |\
"C"g>e c>e g>^f g>a | "G7"(3(gag) (3(fed) "C"c2 f>e |
"Bb"d>B F>B d>f e>d | "F"c<A F>A c3 B/c/ |\
"Bb"d>f e>d "C7"(3(cdc) (3(BAG) | "F"F<A G>E F2 |]

%%sep 1 1 500

